X:396
T:Gloucestershire Mixer
C:Jill Lawrence, 1983
L:1/8
M:2/4
R:Reel
S:Colin Hume's website,  colinhume.com  - chords can also be printed below the stave.
Q:1/4=112
%%MIDI gchord fzczfzcz
K:C
P:A
|: E | "C"Gc ed | "/"c3 B | "Am"AB AE | "G"G3 E |\
"F"FA FA | "C/E"G3 E |1 "Dm"FA FA | "G7"G3 :|2 "Dm"FA "G7"GB | "C"c4 |
P:B
|: "C"ee "G"d2 | "C"cG "F"A2 | "Am"EG cE | "G7"dB AG |\
"C"EG Ac | "Dm"ed AG | "G7"AB dG |1 "C"c4 :|2 "C"c3 |]

